common/src/main/resources/glyphs/plugins/appcode/CodeAssistantProtocolExtension_dark.svg

<svg xmlns="http://www.w3.org/2000/svg" width="16" height="16" fill="#C3E88D" data-big="true" viewBox="0 0 24 24"><path d="M6 9V4h7v5h10v7h-5v5h-7v-5H1V9zm10 7h-3v3h3zM8 9h3V6H8zm-2 5v-3H3v3zm12-3v3h3v-3zm-5 0v3h3v-3zm-5 0v3h3v-3z"/><path fill="#D81B60" d="M22.25 17.5h-.75v-2a1 1 0 0 0-1-1h-2v-.75a1.25 1.25 0 0 0-1.25-1.25A1.25 1.25 0 0 0 16 13.75v.75h-2a1 1 0 0 0-1 1v1.9h.75c.75 0 1.35.6 1.35 1.35s-.6 1.35-1.35 1.35H13V22a1 1 0 0 0 1 1h1.9v-.75c0-.75.6-1.35 1.35-1.35s1.35.6 1.35 1.35V23h1.9a1 1 0 0 0 1-1v-2h.75a1.25 1.25 0 0 0 1.25-1.25 1.25 1.25 0 0 0-1.25-1.25"/></svg>

<!--
  - The MIT License (MIT)
  -
  - Copyright (c) 2015-2024 Elior "Mallowigi" Boukhobza
  -
  - Permission is hereby granted, free of charge, to any person obtaining a copy
  - of this software and associated documentation files (the "Software"), to deal
  - in the Software without restriction, including without limitation the rights
  - to use, copy, modify, merge, publish, distribute, sublicense, and/or sell
  - copies of the Software, and to permit persons to whom the Software is
  - furnished to do so, subject to the following conditions:
  -
  - The above copyright notice and this permission notice shall be included in all
  - copies or substantial portions of the Software.
  -
  - THE SOFTWARE IS PROVIDED "AS IS", WITHOUT WARRANTY OF ANY KIND, EXPRESS OR
  - IMPLIED, INCLUDING BUT NOT LIMITED TO THE WARRANTIES OF MERCHANTABILITY,
  - FITNESS FOR A PARTICULAR PURPOSE AND NONINFRINGEMENT. IN NO EVENT SHALL THE
  - AUTHORS OR COPYRIGHT HOLDERS BE LIABLE FOR ANY CLAIM, DAMAGES OR OTHER
  - LIABILITY, WHETHER IN AN ACTION OF CONTRACT, TORT OR OTHERWISE, ARISING FROM,
  - OUT OF OR IN CONNECTION WITH THE SOFTWARE OR THE USE OR OTHER DEALINGS IN THE
  - SOFTWARE.
  -->


<svg data-big="true" xmlns="http://www.w3.org/2000/svg" version="1.1" width="16px" height="16px" viewBox="0 0 24 24"
     fill="#C3E88D">
  <path
    d="M6,9V4H13V9H23V16H18V21H11V16H1V9H6M16,16H13V19H16V16M8,9H11V6H8V9M6,14V11H3V14H6M18,11V14H21V11H18M13,11V14H16V11H13M8,11V14H11V11H8Z"/>
  <path fill="#D81B60" transform="scale(0.5) translate(24 24)"
        d="M20.5,11H19V7C19,5.89 18.1,5 17,5H13V3.5A2.5,2.5 0 0,0 10.5,1A2.5,2.5 0 0,0 8,3.5V5H4A2,2 0 0,0 2,7V10.8H3.5C5,10.8 6.2,12 6.2,13.5C6.2,15 5,16.2 3.5,16.2H2V20A2,2 0 0,0 4,22H7.8V20.5C7.8,19 9,17.8 10.5,17.8C12,17.8 13.2,19 13.2,20.5V22H17A2,2 0 0,0 19,20V16H20.5A2.5,2.5 0 0,0 23,13.5A2.5,2.5 0 0,0 20.5,11Z"/>

</svg>
